svgs/light/square-b.svg

<svg xmlns="http://www.w3.org/2000/svg" viewBox="0 0 448 512"><!-- Font Awesome Pro 6.0.0-alpha2 by @fontawesome - https://fontawesome.com License - https://fontawesome.com/license (Commercial License) --><path d="M384 32H64C28.654 32 0 60.654 0 96V416C0 451.346 28.654 480 64 480H384C419.346 480 448 451.346 448 416V96C448 60.654 419.346 32 384 32ZM416 416C416 433.645 401.645 448 384 448H64C46.355 448 32 433.645 32 416V96C32 78.355 46.355 64 64 64H384C401.645 64 416 78.355 416 96V416ZM299.775 249.865C312.244 236.918 320 219.393 320 200C320 160.234 287.766 128 248 128H160C142.326 128 128 142.326 128 160V352C128 369.674 142.326 384 160 384H264C303.766 384 336 351.764 336 312C336 285.326 321.326 262.305 299.775 249.865ZM160 160H248C270.057 160 288 177.943 288 200S270.057 240 248 240H160V160ZM264 352H160V272H264C286.057 272 304 289.943 304 312S286.057 352 264 352Z"/></svg>

<svg xmlns="http://www.w3.org/2000/svg" viewBox="0 0 448 512"><!--! Font Awesome Pro 6.3.0 by @fontawesome - https://fontawesome.com License - https://fontawesome.com/license (Commercial License) Copyright 2023 Fonticons, Inc. --><path d="M384 32H64C28.65 32 0 60.65 0 96v320c0 35.35 28.65 64 64 64h320c35.35 0 64-28.65 64-64V96C448 60.65 419.3 32 384 32zM416 416c0 17.64-14.36 32-32 32H64c-17.64 0-32-14.36-32-32V96c0-17.64 14.36-32 32-32h320c17.64 0 32 14.36 32 32V416zM299.8 249.9C312.2 236.9 320 219.4 320 200C320 160.2 287.8 128 248 128H160C142.3 128 128 142.3 128 160v192c0 17.67 14.33 32 32 32h104c39.77 0 72-32.24 72-72C336 285.3 321.3 262.3 299.8 249.9zM160 160h88C270.1 160 288 177.9 288 200S270.1 240 248 240H160V160zM264 352H160V272h104c22.06 0 40 17.94 40 40S286.1 352 264 352z"/></svg>
